X: 3192
T: The CURRANT BUSH
Q: "Reel."
R: Reel.
%R: reel
B: James Kerr "Merry Melodies" v.3 p.22 #192
Z: 2016 John Chambers <jc:trillian.mit.edu>
M: C
L: 1/8
K: Gm
|:\
vGABc d2g2 | e2ge d2Bd |\
c2Ac B2GB | [1 ABAG ^FD=EF :|[2 AG^FA G2d2 |]
|:\
g^fga bagb | ag^fa g2d2 |\
[1 g^fga bagb | ag^fa g3d :|\
[2 c2Ac B2GB | AG^FA G2d2 |]

%%sep 1 1 500
%%sep 1 1 500

